X:1
T:D Pentatonic Study — Xiao
C:sheet-music skill
M:4/4
L:1/4
Q:1/4=56
K:D
H:D pentatonic (D E G A B — no F# or C#). The xiao's natural scale.
H:Slow paired ascents and descents. Listen for resonance on G and A.
(DE)(GA)|(Bd)(dB)|(GA)(ED)|(D4)|
(de)(ga)|(bd')(d'b)|(ga)(ed)|(d4)|
D d D d | E e E e | G g G g | A4 |]
